X:1077
T:Waiting At The Church 
C:Joe Buchanan's Scottish Tome - Page 464.2
I:464 2
R:Folk
Z:Carl Allison
L:1/8
M:6/8
K:C
|: "C"E3- E2 F | G6 | "F"F2 E F2 G | A6 | "D7"^F2=F^F2 G | A6 | "G"G2 ^F G2 A | B6 |
"C"c3- c2 A | G3- G2 A | "B7"B2 c B2 A | "Em"G6 | d3 c2 B | A3 d3 | "G"B3 G3 | "G7"F3 D3 |
"C"E3- E2 F | G3- G2 E | "F"F2 E F2 G | A6 | "D7"^F2=F^F2 G | A6 | "G"G2 ^F G2 A | B6 |
"C"c3 G2 A | "A7"G3 E3 | "Dm"F2 G A2 F | D6 | "C"G3 c3- | c3 E3 |1 "B"D3 "C"C3 | "Bm"A3 "G"G3 :|
%%leftmargin 442 cm
|2 "G"D3 "C"C3 | |]

